Numix/48x48/categories/applications-geology.svg

<?xml version="1.0" encoding="UTF-8" standalone="no"?>
<svg
   xmlns:dc="http://purl.org/dc/elements/1.1/"
   xmlns:cc="http://creativecommons.org/ns#"
   xmlns:rdf="http://www.w3.org/1999/02/22-rdf-syntax-ns#"
   xmlns:svg="http://www.w3.org/2000/svg"
   xmlns="http://www.w3.org/2000/svg"
   xmlns:sodipodi="http://sodipodi.sourceforge.net/DTD/sodipodi-0.dtd"
   xmlns:inkscape="http://www.inkscape.org/namespaces/inkscape"
   width="48"
   height="48"
   viewBox="0 0 38.4 38.4"
   id="svg2"
   version="1.1"
   inkscape:version="0.91 r"
   sodipodi:docname="applications-geology.svg">
  <metadata
     id="metadata24">
    <rdf:RDF>
      <cc:Work
         rdf:about="">
        <dc:format>image/svg+xml</dc:format>
        <dc:type
           rdf:resource="http://purl.org/dc/dcmitype/StillImage" />
        <dc:title />
      </cc:Work>
    </rdf:RDF>
  </metadata>
  <defs
     id="defs22" />
  <sodipodi:namedview
     pagecolor="#ffffff"
     bordercolor="#666666"
     borderopacity="1"
     objecttolerance="10"
     gridtolerance="10"
     guidetolerance="10"
     inkscape:pageopacity="0"
     inkscape:pageshadow="2"
     inkscape:window-width="1920"
     inkscape:window-height="1056"
     id="namedview20"
     showgrid="true"
     inkscape:zoom="14.052817"
     inkscape:cx="5.912928"
     inkscape:cy="17.566582"
     inkscape:window-x="0"
     inkscape:window-y="24"
     inkscape:window-maximized="1"
     inkscape:current-layer="svg2">
    <inkscape:grid
       type="xygrid"
       id="grid4152" />
  </sodipodi:namedview>
  <g
     id="g6"
     style="fill:#a57855;fill-rule:evenodd;stroke:#a57855;stroke-width:0.78054166;stroke-linejoin:round;stroke-miterlimit:4;stroke-dasharray:none"
     transform="matrix(1.0248167,0,0,1.0250419,-0.27184494,0.48173667)">
    <path
       inkscape:connector-curvature="0"
       id="path8"
       transform="scale(0.14844,0.14844)"
       d="M 30.710526,148.18421 C 69,147.65789 84.5,142.94737 96.263158,139.31579 c 11.763162,-3.6579 29.210522,-11.5 29.210522,-11.5 l 44,89.8421 -138.763154,0 z"
       style="stroke-width:5.25829744;stroke-miterlimit:4;stroke-dasharray:none" />
    <path
       inkscape:connector-curvature="0"
       id="path10"
       transform="scale(0.14844,0.14844)"
       d="m 157.28947,182.07895 c 0,0 -19.76315,10.97368 -25.44737,13.73684 -7.86842,3.81579 -21.42105,14.10526 -45.157889,21.47368 l -55.631579,0 0,-43.89473 c 32.131579,-1 55.289473,-2 69.684208,-8.02632 14.36842,-6.02632 41.47369,-20.07895 41.47369,-20.07895 z"
       style="stroke-width:5.25829744;stroke-miterlimit:4;stroke-dasharray:none" />
    <path
       inkscape:connector-curvature="0"
       id="path12"
       transform="scale(0.14844,0.14844)"
       d="m 132.52632,142.18421 c 20.8421,-20.89474 14.78947,-27.15789 35.94736,-28.97368 21.1579,-1.81579 56.81579,14.07894 56.81579,14.07894 l 0,90.31579 -55.81579,0 z"
       style="stroke-width:5.25829744;stroke-miterlimit:4;stroke-dasharray:none" />
    <path
       inkscape:connector-curvature="0"
       id="path14"
       transform="scale(0.14844,0.14844)"
       d="m 224.60526,184.10526 c 0,0 -4.97368,-2.63158 -11.44737,-5.36842 -6.36842,-2.65789 -11.5,-3.97368 -23.07894,-0.65789 -7.84211,2.23684 -14.36842,7.21052 -27.73685,17.26315 L 145.23684,152.31579 C 158.52632,140.3421 169,131.89474 182.36842,130.89474 c 13.39474,-1 24.42105,1.3421 31.13158,4.68421 6.68421,3.3421 10.44737,5.68421 10.44737,5.68421 z"
       style="stroke-width:5.25829744;stroke-miterlimit:4;stroke-dasharray:none" />
  </g>
  <g
     style="stroke:#a57855;stroke-width:1.582932;stroke-miterlimit:4;stroke-dasharray:none"
     id="g16"
     transform="matrix(1.0107862,0,0,1.0107788,-0.00526095,-0.00512035)">
    <path
       inkscape:connector-curvature="0"
       id="path18"
       transform="scale(0.14844,0.14844)"
       d="m 34.394737,32.026316 187.210523,0 c 1.31579,0 2.36842,1.052631 2.36842,2.368421 l 0,187.210523 c 0,1.31579 -1.05263,2.36842 -2.36842,2.36842 l -187.210523,0 c -1.31579,0 -2.368421,-1.05263 -2.368421,-2.36842 l 0,-187.210523 c 0,-1.31579 1.052631,-2.368421 2.368421,-2.368421 z"
       style="fill:none;stroke-width:10.66378307;stroke-linecap:round;stroke-miterlimit:4;stroke-dasharray:none" />
  </g>
</svg>

<svg width="47.5" xmlns="http://www.w3.org/2000/svg" height="47.5" viewBox="0 0 38 38" xmlns:xlink="http://www.w3.org/1999/xlink">
<g style="stroke:#a57855">
<g style="fill:#a57855;fill-rule:evenodd;stroke-linejoin:round">
<path style="stroke-width:5.418" d="M 30.710526 148.184211 C 69 147.657895 84.5 142.947368 96.263158 139.315789 C 108.026316 135.657895 125.473684 127.815789 125.473684 127.815789 L 169.473684 217.657895 L 30.710526 217.657895 Z " transform="scale(.14844)"/>
<path style="stroke-width:6.123" d="M 157.289474 182.078947 C 157.289474 182.078947 137.526316 193.052632 131.842105 195.815789 C 123.973684 199.631579 110.421053 209.921053 86.684211 217.289474 L 31.052632 217.289474 L 31.052632 173.394737 C 63.184211 172.394737 86.342105 171.394737 100.736842 165.368421 C 115.105263 159.342105 142.210526 145.289474 142.210526 145.289474 Z " transform="scale(.14844)"/>
<path style="stroke-width:5.418" d="M 132.526316 142.184211 C 153.368421 121.289474 147.315789 115.026316 168.473684 113.210526 C 189.631579 111.394737 225.289474 127.289474 225.289474 127.289474 L 225.289474 217.605263 L 169.473684 217.605263 Z " transform="scale(.14844)"/>
<path style="stroke-width:6.123" d="M 224.605263 184.105263 C 224.605263 184.105263 219.631579 181.473684 213.157895 178.736842 C 206.789474 176.078947 201.657895 174.763158 190.078947 178.078947 C 182.236842 180.315789 175.710526 185.289474 162.342105 195.342105 L 145.236842 152.315789 C 158.526316 140.342105 169 131.894737 182.368421 130.894737 C 195.763158 129.894737 206.789474 132.236842 213.5 135.578947 C 220.184211 138.921053 223.947368 141.263158 223.947368 141.263158 Z " transform="scale(.14844)"/>
</g>
<g>
<path style="fill:none;stroke-linecap:round;stroke-width:8.073" d="M 34.394737 32.026316 L 221.605263 32.026316 C 222.921053 32.026316 223.973684 33.078947 223.973684 34.394737 L 223.973684 221.605263 C 223.973684 222.921053 222.921053 223.973684 221.605263 223.973684 L 34.394737 223.973684 C 33.078947 223.973684 32.026316 222.921053 32.026316 221.605263 L 32.026316 34.394737 C 32.026316 33.078947 33.078947 32.026316 34.394737 32.026316 Z " transform="scale(.14844)"/>
</g>
</g>
</svg>
